icon-themes/sifr_svg/cmd/sc_zoomobjects.svg

<svg xmlns="http://www.w3.org/2000/svg" viewBox="0 0 16 16">
  <path
     style="fill:#ffffff"
     d="M 4 4 L 4 12 L 12 12 L 12 4 L 4 4 z "
     />
  <path
     style="fill:#555753"
     d="M 3.1875,2 C 2.5248,2 2,2.54899 2,3.21875 v 9.5625 C 2,13.45101 2.5248,14 3.1875,14 h 9.625 C 13.4752,14 14,13.45101 14,12.78125 V 3.21875 C 14,2.54899 13.4752,2 12.8125,2 Z M 4,4 H 7 V 5 H 5 V 7 H 4 Z m 5,0 h 3 V 7 H 11 V 5 H 9 Z M 6.03125,6 H 10 v 4 H 6.03125 Z M 4,9 h 1 v 2 h 2 v 1 H 4 Z m 7,0 h 1 v 3 H 9 v -1 h 2 z"
     />
</svg>

<svg xmlns="http://www.w3.org/2000/svg" viewBox="0 0 16 16">
 <path
     style="fill:#555753"
     d="M 3.1875 2 C 2.5248 2 2 2.54899 2 3.21875 L 2 12.78125 C 2 13.45101 2.5248 14 3.1875 14 L 12.8125 14 C 13.4752 14 14 13.45101 14 12.78125 L 14 3.21875 C 14 2.54899 13.4752 2 12.8125 2 L 3.1875 2 z M 4 4 L 7 4 L 7 5 L 5 5 L 5 7 L 4 7 L 4 4 z M 9 4 L 12 4 L 12 7 L 11 7 L 11 5 L 9 5 L 9 4 z M 6.03125 6 L 10.03125 6 L 10.03125 10 L 6.03125 10 L 6.03125 6 z M 4 9 L 5 9 L 5 11 L 7 11 L 7 12 L 4 12 L 4 9 z M 11 9 L 12 9 L 12 12 L 9 12 L 9 11 L 11 11 L 11 9 z "
     />
 </svg>
